public/icon-high-five.svg

<svg width="48" height="48" viewBox="0 0 48 48" fill="none" xmlns="http://www.w3.org/2000/svg">
<path d="M29.5 47.5H18L13.5 36L10.5 34.5L7 29L3 23.5H7L9.5 24.5L6 13.5L8.5 12V8L9.5 7L11.5 8L12.5 10H14.5H16.5L17.5 12.5L19 12H21L24.5 19L26 25.5L24.5 31.5L29.5 47.5Z" fill="#FFE493"/>
<path d="M45.5101 23.2214C45.4172 22.9557 45.21 22.7457 44.9455 22.6494C43.2983 22.05 41.5162 22.1281 39.9275 22.8692C39.907 22.8787 39.8873 22.8895 39.8669 22.8993L42.7853 14.8802C43.3159 13.4228 42.5621 11.8055 41.1041 11.2746C40.7953 11.1624 40.4792 11.1085 40.168 11.1061L40.5437 10.0736C41.0752 8.61402 40.3247 6.99993 38.8633 6.46912C37.4008 5.93671 35.7885 6.69074 35.2588 8.14949L34.8834 9.18074C34.6399 8.98049 34.3617 8.82074 34.0567 8.70965C32.5967 8.17818 30.983 8.92977 30.4522 10.3911L30.0761 11.424C29.8359 11.2255 29.559 11.0638 29.2502 10.9512C27.7933 10.4208 26.1764 11.1745 25.6457 12.6318L24 17.1532L22.3544 12.6319C21.8237 11.1747 20.2066 10.421 18.7496 10.9516C18.441 11.0641 18.1641 11.2258 17.924 11.4242L17.5482 10.392C17.0174 8.9308 15.4045 8.1779 13.9434 8.70993C13.6384 8.82102 13.3602 8.98068 13.1167 9.18102L12.7416 8.15052C12.2102 6.68737 10.5954 5.93774 9.13739 6.46883C7.67639 6.99955 6.92414 8.61233 7.45608 10.0734L7.83192 11.1061C7.52039 11.1085 7.20417 11.1624 6.89508 11.2747C5.43783 11.8054 4.68399 13.4227 5.21452 14.88L8.13305 22.8992C8.11261 22.8894 8.09293 22.8786 8.07239 22.8691C6.4838 22.128 4.70171 22.0501 3.05442 22.6493C2.78996 22.7456 2.58267 22.9556 2.48986 23.2213C2.39714 23.4871 2.42864 23.7804 2.57574 24.0203L7.53886 32.1146C8.81949 34.2036 10.7773 35.7591 13.0887 36.5353L16.8355 47.3689C16.9662 47.7466 17.3219 47.9999 17.7215 47.9999H30.2793C30.6791 47.9999 31.0348 47.7465 31.1654 47.3688L34.9111 36.5353C37.2225 35.7591 39.1803 34.2036 40.461 32.1146L45.4241 24.0202C45.5714 23.7805 45.6029 23.4872 45.5101 23.2214ZM38.8625 31.1348C37.7416 32.9632 35.9879 34.2929 33.9241 34.8789C33.6294 34.9626 33.3943 35.1849 33.2941 35.4744L29.9822 45.0531L28.8279 41.7604C28.6566 41.2717 28.1219 41.0147 27.633 41.1859C27.1444 41.3572 26.8873 41.8922 27.0586 42.3808L28.3713 46.1251H18.3893L14.7057 35.4743C14.6055 35.1849 14.3703 34.9626 14.0757 34.8789C12.012 34.2929 10.2582 32.9632 9.1373 31.1347L4.85339 24.1481C6.89283 23.9507 8.94361 25.13 9.70233 27.2112L9.70327 27.2138C9.70346 27.2144 9.70374 27.215 9.70393 27.2155L10.3446 28.9755C10.5217 29.4621 11.0597 29.7129 11.5462 29.5358C12.0327 29.3587 12.2836 28.8207 12.1065 28.3342C11.0965 25.5593 8.08496 17.2848 6.97636 14.2388C6.79946 13.7529 7.05071 13.2137 7.53586 13.0371C8.02177 12.8604 8.5613 13.1118 8.73849 13.5974L11.9448 22.4074C12.1211 22.8914 12.6574 23.1456 13.1464 22.9677C13.6329 22.7906 13.8839 22.2527 13.7069 21.7661C13.2781 20.5881 9.6698 10.6736 9.21802 9.43218C9.04242 8.94983 9.28655 8.40955 9.77827 8.23105C10.2609 8.05555 10.8009 8.29968 10.9794 8.7913L15.4691 21.1249C15.6463 21.6114 16.1839 21.8622 16.6707 21.6852C17.1571 21.5081 17.4081 20.9702 17.2311 20.4836C16.0595 17.2645 15.1811 14.8536 14.0248 11.6737C13.8471 11.1857 14.0988 10.6487 14.585 10.4717C15.0711 10.2947 15.6088 10.5446 15.7861 11.0328C16.3189 12.4964 18.9896 19.8323 19.6346 21.6039C19.8112 22.0889 20.3482 22.3418 20.8362 22.1642C21.3226 21.9871 21.5735 21.4491 21.3964 20.9626C21.0115 19.905 18.9023 14.1126 18.8303 13.9126C18.6551 13.428 18.9069 12.89 19.3916 12.7133C19.8768 12.5364 20.4159 12.7879 20.5927 13.2734L24.4111 23.765C25.3317 26.2935 25.0216 29.0424 23.5603 31.3069C23.4033 31.5501 23.3675 31.8522 23.4633 32.1254L24.2676 34.4194C24.4392 34.9087 24.9746 35.165 25.4625 34.9939C25.9511 34.8225 26.2082 34.2876 26.037 33.7989L25.3802 31.9259C26.9505 29.2436 27.2427 26.0616 26.1731 23.1236L24.9977 19.8942L27.4077 13.2735C27.5845 12.7878 28.1236 12.5366 28.6085 12.7131C29.0935 12.89 29.3453 13.428 29.1701 13.9126C29.1691 13.9152 29.1686 13.9178 29.1677 13.9205L26.604 20.9626C26.4268 21.4491 26.6776 21.9871 27.1642 22.1642C27.6526 22.342 28.1894 22.0886 28.3658 21.6039C29.0134 19.825 31.6796 12.5013 32.2145 11.032C32.391 10.5462 32.9279 10.2941 33.4154 10.4716C33.9015 10.6486 34.1533 11.1856 33.9756 11.6736C33.9742 11.6774 33.9735 11.6811 33.9721 11.6849L30.7693 20.4835C30.5922 20.9701 30.8431 21.508 31.3297 21.6851C31.8161 21.8624 32.3542 21.6113 32.5313 21.1248L37.0209 8.79046C37.1973 8.30474 37.7341 8.0534 38.2224 8.23133C38.7085 8.40787 38.9593 8.94496 38.7818 9.43237L34.2931 21.7661C34.116 22.2527 34.3669 22.7906 34.8535 22.9677C35.3409 23.1452 35.8784 22.893 36.0551 22.4074L39.2611 13.5979C39.4381 13.112 39.9776 12.8603 40.4632 13.0368C40.9491 13.2137 41.2003 13.7529 41.0234 14.2389C40.1791 16.5587 36.5399 26.5581 35.8934 28.3342C35.7162 28.8207 35.967 29.3587 36.4536 29.5358C36.9405 29.7129 37.4783 29.4621 37.6552 28.9755L38.2967 27.2133C38.7249 26.0369 39.5855 25.0977 40.7201 24.5685C41.4899 24.2094 42.3231 24.0684 43.1464 24.1483L38.8625 31.1348Z" fill="black"/>
<path d="M23.0625 5.25C23.0625 5.76778 23.4823 6.1875 24 6.1875C24.5177 6.1875 24.9375 5.76778 24.9375 5.25V0.9375C24.9375 0.419719 24.5177 0 24 0C23.4823 0 23.0625 0.419719 23.0625 0.9375V5.25Z" fill="black"/>
<path d="M20.3635 7.23857C20.7296 6.87247 20.7296 6.27885 20.3635 5.91276L17.7124 3.26151C17.3463 2.89542 16.7528 2.89542 16.3864 3.26151C16.0204 3.6276 16.0204 4.22123 16.3864 4.58732L19.0376 7.23857C19.4038 7.60466 19.9972 7.60475 20.3635 7.23857Z" fill="black"/>
<path d="M28.9624 7.23857L31.6135 4.58732C31.9796 4.22123 31.9796 3.6276 31.6135 3.26151C31.2473 2.89542 30.6539 2.89542 30.2876 3.26151L27.6364 5.91276C27.2704 6.27885 27.2704 6.87247 27.6364 7.23857C28.0026 7.60475 28.5961 7.60466 28.9624 7.23857Z" fill="black"/>
<path d="M26.625 39C27.1428 39 27.5625 38.5803 27.5625 38.0625C27.5625 37.5447 27.1428 37.125 26.625 37.125C26.1072 37.125 25.6875 37.5447 25.6875 38.0625C25.6875 38.5803 26.1072 39 26.625 39Z" fill="black"/>
</svg>

<svg width="48" height="48" fill="none" xmlns="http://www.w3.org/2000/svg"><path d="M29.5 47.5H18L13.5 36l-3-1.5L7 29l-4-5.5h4l2.5 1-3.5-11L8.5 12V8l1-1 2 1 1 2h4l1 2.5L19 12h2l3.5 7 1.5 6.5-1.5 6 5 16z" fill="#FFE493"/><path d="M45.51 23.221a.938.938 0 00-.564-.572 6.52 6.52 0 00-5.018.22l-.061.03 2.918-8.019a2.816 2.816 0 00-2.617-3.774l.376-1.032a2.81 2.81 0 00-1.68-3.605 2.81 2.81 0 00-3.605 1.68l-.376 1.032a2.817 2.817 0 00-4.43 1.21l-.377 1.033a2.815 2.815 0 00-4.43 1.208L24 17.153l-1.646-4.521a2.815 2.815 0 00-4.43-1.208l-.376-1.032a2.81 2.81 0 00-4.431-1.211l-.375-1.03a2.81 2.81 0 00-3.605-1.682 2.81 2.81 0 00-1.68 3.604l.375 1.033a2.816 2.816 0 00-2.617 3.774l2.918 8.02-.06-.03a6.52 6.52 0 00-5.019-.22.938.938 0 00-.478 1.37l4.963 8.095a10.367 10.367 0 005.55 4.42l3.746 10.834c.131.378.487.63.886.63H30.28c.4 0 .756-.253.886-.63l3.746-10.834a10.367 10.367 0 005.55-4.42l4.963-8.095a.936.936 0 00.086-.799zm-6.648 7.914a8.5 8.5 0 01-4.938 3.744.938.938 0 00-.63.595l-3.312 9.58-1.154-3.294a.937.937 0 10-1.77.62l1.313 3.745H18.39l-3.683-10.65a.938.938 0 00-.63-.596 8.5 8.5 0 01-4.939-3.744l-4.284-6.987a4.689 4.689 0 014.85 3.063v.005l.642 1.76a.937.937 0 101.761-.642L6.977 14.24a.939.939 0 011.762-.642l3.207 8.81a.938.938 0 001.762-.64L9.218 9.431a.936.936 0 111.761-.64l4.49 12.333a.938.938 0 001.762-.641c-1.172-3.22-2.05-5.63-3.206-8.81a.937.937 0 111.761-.641l3.849 10.57a.938.938 0 001.761-.64c-.384-1.058-2.494-6.85-2.566-7.05a.938.938 0 011.762-.64l3.82 10.492a8.462 8.462 0 01-.852 7.542.937.937 0 00-.097.818l.805 2.294a.938.938 0 101.769-.62l-.657-1.873a10.314 10.314 0 00.793-8.802l-1.175-3.23 2.41-6.62a.938.938 0 011.762.639l-.002.008-2.564 7.042a.937.937 0 101.762.64l3.849-10.571a.936.936 0 111.76.642l-.003.01-3.203 8.8a.937.937 0 101.762.64l4.49-12.334a.936.936 0 011.201-.559.936.936 0 01.56 1.201l-4.489 12.334a.937.937 0 101.762.641l3.206-8.81a.939.939 0 011.762.641l-5.13 14.096a.937.937 0 101.762.642l.642-1.763a4.657 4.657 0 012.423-2.645c.77-.359 1.603-.5 2.426-.42l-4.284 6.987z" fill="#000"/><path d="M23.063 5.25a.938.938 0 001.875 0V.937a.938.938 0 00-1.875 0V5.25zM20.363 7.239a.938.938 0 000-1.326l-2.65-2.651a.938.938 0 00-1.327 1.325l2.652 2.652a.938.938 0 001.325 0zM28.962 7.239l2.651-2.652a.938.938 0 10-1.325-1.325l-2.652 2.65a.938.938 0 001.326 1.327zM26.625 39a.937.937 0 100-1.875.937.937 0 000 1.875z" fill="#000"/></svg>
